src/components/Icon/icons/info.svg

<svg xmlns="http://www.w3.org/2000/svg" width="24" height="24" viewBox="0 0 24 24">
  <path fill-rule="evenodd" d="M12,24 C5.372583,24 0,18.627417 0,12 C0,5.372583 5.372583,0 12,0 C18.627417,0 24,5.372583 24,12 C24,18.627417 18.627417,24 12,24 Z M12,21 C16.9705627,21 21,16.9705627 21,12 C21,7.02943725 16.9705627,3 12,3 C7.02943725,3 3,7.02943725 3,12 C3,16.9705627 7.02943725,21 12,21 Z M13.6343801,18.3157895 L10.4993061,18.3157895 L10.4993061,9.23129112 L13.6343801,9.23129112 L13.6343801,18.3157895 Z M10.4191252,6.44777961 C10.4191252,5.97738252 10.5500861,5.62726266 10.8120117,5.39740954 C11.0739374,5.16755642 11.4962193,5.05263158 12.0788703,5.05263158 C12.6615212,5.05263158 13.0864758,5.17022909 13.3537469,5.40542763 C13.621018,5.64062618 13.7546515,5.98807336 13.7546515,6.44777961 C13.7546515,7.3671921 13.1960634,7.82689145 12.0788703,7.82689145 C10.972368,7.82689145 10.4191252,7.3671921 10.4191252,6.44777961 Z"/>
</svg>

<svg xmlns="http://www.w3.org/2000/svg" width="24" height="24" viewBox="0 0 24 24"><path fill-rule="evenodd" d="M12 24C5.373 24 0 18.627 0 12S5.373 0 12 0s12 5.373 12 12-5.373 12-12 12zm0-3a9 9 0 100-18 9 9 0 000 18zm1.634-2.684H10.5V9.23h3.135v9.085zM10.42 6.448c0-.47.131-.82.393-1.05.262-.23.684-.345 1.267-.345.583 0 1.007.117 1.275.352.267.236.4.583.4 1.043 0 .92-.558 1.379-1.675 1.379-1.107 0-1.66-.46-1.66-1.38z"/></svg>
